X:248
T:Reel 248
M:4/4
K:Dmaj
L:1/8
 (3DEF |G>A, (3CB,A, D>F (3FEF |G>E (3EEE B>E (3EDC |D>C (3CB,A, B,>C (3EDE |D>F (3FB,A, A2FD|C>E (3EDE F>F (3FEF |G>F (3EEE G2FE|DB,CD A,ECE| (3FED EC D2|FA|B2| (3Bcd A>F  (3Bcd A>F| (3EFE  (3FGF G>F (3FED |E>E (3EEE E>E (3EFE |Beed cBAc|B>B, (3CB,A, B,>E (3EEE | (3FED F>D  (3FGA B2|cBc (3dcB A>F (3GEE |B,DCE FGFG|
